!!!SOCIAL_FUNCTION:	bird dance songs
!!!PDT:	1956
!!!OTL: No_143_Screech_Owl_Dance_Song_(c).krn
!!!LANG: Non-Tone
!!!LING_GROUP: Muskogean
!!!REG: Florida
**kern
*staff1
=1-
=
*clefF4
*k[b-e-]
*M3/4
8F\L
8F\J
8F\L
8F\J
16F\LL
16F\J
8F\J
=2||
*M5/8
4c\
8c\L
16.B-\L
32B-\JK
8G\J
=3||
*M2/4
4F\
4F\
=4||
*M3/4
8c\L
8c\J
16B-\LL
16G\J
8G\J
16G\LL
16G\J
8C\J
=5||
*M5/8
8F\
8r
8c\L
16.B-\L
32B-\JK
8G\J
=6||
*M2/4
4F\
8F\
8r
=7
4E-\
8E-\L
16E-\Jk
16r
=8||
*M5/8
4F\
8F\
4r
==:|!
*-
